X:40
T: ES RATT (REI'T) WOHL AUS DER HAEDE (HEIDE)
N: Z0041
O: Europa, Mitteleuropa, Deutschland, Kuhlaendchen
R: Sagen - Lied, Romanze
M: 3/4
L: 1/8
K: G
D2 | GGA2FD | G2A2z
A | AAe2A2 | e2d2z
d | ccA2FF | G2A2z
B | ccA2FD | G2A2

